actions/22/code-context.svg

<svg xmlns="http://www.w3.org/2000/svg" viewBox="0 0 22 22">
  <defs id="defs3051">
    <style type="text/css" id="current-color-scheme">
      .ColorScheme-Text {
        color:#808080;
      }
      </style>
  </defs>
 <path 
     style="fill:currentColor;fill-opacity:1;stroke:none" 
	 d="m10.04492 3c-1.77683 0-2.521484.706446-2.521484 2.509766v2.441406c0 1.11382-.034195 2.404297-1.015625 2.404297h-.507813v1.289062h.507813c.98148 0 1.015625 1.290477 1.015625 2.404297v2.441406c0 1.80332.744654 2.509766 2.521484 2.509766v-1.183594c-1.18455 0-1.201172-.478327-1.201172-2.210937v-2.01563c0-.83093-.204705-2.067378-1.203125-2.580078.99842-.51271 1.203125-1.751092 1.203125-2.582032v-2.033203c0-1.7326.016592-2.210937 1.201172-2.210937v-1.183594m1.894531 0v1.183594c1.18456 0 1.216797.478337 1.216797 2.210937v2.033203c0 .83094.204705 2.069322 1.203125 2.582032-.99842.5127-1.203125 1.749148-1.203125 2.580078v2.01563c0 1.73261-.032187 2.210937-1.216797 2.210937v1.183594c1.77684 0 2.537109-.706446 2.537109-2.509766v-2.441406c0-1.11382.068644-2.404297 1.033204-2.404297h.490234v-1.289062h-.490234c-.96457 0-1.033204-1.290477-1.033204-2.404297v-2.441406c0-1.80332-.760269-2.509766-2.537109-2.509766"
	 class="ColorScheme-Text"
     />
</svg>

<svg xmlns="http://www.w3.org/2000/svg" version="1.1" viewBox="0 0 22 22">
 <defs>
  <style id="current-color-scheme" type="text/css">
   .ColorScheme-Text { color:#808080; }
  </style>
 </defs>
 <path class="ColorScheme-Text" d="M 10.045,3 C 8.2681,3 7.5234,3.7064 7.5234,5.5098 V 7.9512 C 7.5234,9.065 7.4892,10.355 6.5078,10.355 H 6 V 11.645 H 6.5078 C 7.4893,11.645 7.5234,12.935 7.5234,14.049 V 16.49 C 7.5234,18.294 8.2681,19 10.045,19 V 17.816 C 8.8604,17.816 8.8437,17.338 8.8437,15.605 V 13.59 C 8.8437,12.759 8.639,11.522 7.6406,11.01 8.639,10.497 8.8437,9.2587 8.8437,8.4277 V 6.3945 C 8.8437,4.6619 8.8603,4.1836 10.045,4.1836 V 3 M 11.939,3 V 4.1836 C 13.124,4.1836 13.156,4.6619 13.156,6.3945 V 8.4277 C 13.156,9.2587 13.361,10.497 14.359,11.01 13.361,11.522 13.156,12.759 13.156,13.59 V 15.605 C 13.156,17.338 13.124,17.816 11.939,17.816 V 19 C 13.716,19 14.477,18.294 14.477,16.49 V 14.049 C 14.477,12.935 14.545,11.645 15.51,11.645 H 16 V 10.355 H 15.51 C 14.545,10.355 14.477,9.065 14.477,7.9512 V 5.5098 C 14.477,3.7064 13.716,3 11.939,3" style="color:#808080;fill:currentColor"/>
</svg>
